package/contents/images/garden-light.svg

<?xml version="1.0" encoding="UTF-8" standalone="no"?>
<!-- Created with Inkscape (http://www.inkscape.org/) -->

<svg:svg
   xmlns:dc="http://purl.org/dc/elements/1.1/"
   xmlns:cc="http://creativecommons.org/ns#"
   xmlns:rdf="http://www.w3.org/1999/02/22-rdf-syntax-ns#"
   xmlns:svg="http://www.w3.org/2000/svg"
   xmlns:sodipodi="http://sodipodi.sourceforge.net/DTD/sodipodi-0.dtd"
   xmlns:inkscape="http://www.inkscape.org/namespaces/inkscape"
   width="22"
   height="22"
   viewBox="0 0 21.999999 21.999999"
   id="svg7888"
   version="1.1"
   inkscape:version="0.91 r13725"
   sodipodi:docname="philips-hue-room-garden.svg"
   inkscape:export-filename="/home/jamboarder/Projects/KDE VDG/Phillips Hue Plasmoid/philips-hue-bulb-fill.png"
   inkscape:export-xdpi="523.63635"
   inkscape:export-ydpi="523.63635">
  <svg:defs
     id="defs7890">
    <svg:linearGradient
       id="linearGradient4178">
      <svg:stop
         id="stop4180"
         offset="0"
         style="stop-color:#3c3c3c;stop-opacity:0.24313726" />
      <svg:stop
         id="stop4182"
         offset="1"
         style="stop-color:#232629;stop-opacity:0.01176471" />
    </svg:linearGradient>
    <svg:linearGradient
       id="linearGradient4172">
      <svg:stop
         id="stop4174"
         offset="0"
         style="stop-color:#252525;stop-opacity:0.24313726" />
      <svg:stop
         id="stop4176"
         offset="1"
         style="stop-color:#232629;stop-opacity:0.01176471" />
    </svg:linearGradient>
    <svg:linearGradient
       id="linearGradient4165">
      <svg:stop
         id="stop4167"
         offset="0"
         style="stop-color:#1d2023;stop-opacity:0.24313726" />
      <svg:stop
         id="stop4169"
         offset="1"
         style="stop-color:#232629;stop-opacity:0.00392157" />
    </svg:linearGradient>
    <svg:linearGradient
       id="linearGradient7348">
      <svg:stop
         style="stop-color:#232629;stop-opacity:0.20588236"
         offset="0"
         id="stop7350" />
      <svg:stop
         style="stop-color:#232629;stop-opacity:0.01176471"
         offset="1"
         id="stop7352" />
    </svg:linearGradient>
    <style
       type="text/css"
       id="current-color-scheme">
        .ColorScheme-Text {
        color:#f2f2f2;
      }
    </style>
  </svg:defs>
  <sodipodi:namedview
     id="base"
     pagecolor="#ffffff"
     bordercolor="#666666"
     borderopacity="1.0"
     inkscape:pageopacity="0"
     inkscape:pageshadow="2"
     inkscape:zoom="32"
     inkscape:cx="7.3542838"
     inkscape:cy="12.021519"
     inkscape:document-units="px"
     inkscape:current-layer="layer1"
     showgrid="true"
     units="px"
     inkscape:snap-bbox="true"
     inkscape:bbox-nodes="true"
     inkscape:snap-intersection-paths="true"
     inkscape:snap-midpoints="true"
     inkscape:object-paths="true"
     inkscape:object-nodes="true"
     inkscape:snap-nodes="true"
     showguides="true"
     inkscape:guide-bbox="true"
     inkscape:window-width="1365"
     inkscape:window-height="1011"
     inkscape:window-x="531"
     inkscape:window-y="40"
     inkscape:window-maximized="0"
     inkscape:snap-global="true"
     inkscape:snap-smooth-nodes="true"
     inkscape:bbox-paths="true"
     inkscape:snap-bbox-edge-midpoints="true">
    <inkscape:grid
       type="xygrid"
       id="grid7896"
       empspacing="4"
       originx="0"
       originy="0"
       color="#0000ff"
       opacity="0.12156863" />
    <sodipodi:guide
       position="-4.9999998,19.999999"
       orientation="0,1"
       id="guide8012" />
    <sodipodi:guide
       position="18.999999,5.9999997"
       orientation="1,0"
       id="guide8018" />
    <sodipodi:guide
       position="2.9999999,2.9999999"
       orientation="0,1"
       id="guide8022" />
    <sodipodi:guide
       position="2.9999999,5.9999997"
       orientation="1,0"
       id="guide8024" />
    <sodipodi:guide
       position="10.999999,0"
       orientation="1,0"
       id="guide4302" />
  </sodipodi:namedview>
  <svg:metadata
     id="metadata7893">
    <rdf:RDF>
      <cc:Work
         rdf:about="">
        <dc:format>image/svg+xml</dc:format>
        <dc:type
           rdf:resource="http://purl.org/dc/dcmitype/StillImage" />
        <dc:title />
      </cc:Work>
    </rdf:RDF>
  </svg:metadata>
  <svg:g
     inkscape:label="Layer 1"
     inkscape:groupmode="layer"
     id="layer1"
     transform="translate(0,-1030.3622)">
    <svg:path
       style="color:#000000;font-style:normal;font-variant:normal;font-weight:normal;font-stretch:normal;font-size:medium;line-height:normal;font-family:sans-serif;text-indent:0;text-align:start;text-decoration:none;text-decoration-line:none;text-decoration-style:solid;text-decoration-color:#000000;letter-spacing:normal;word-spacing:normal;text-transform:none;direction:ltr;block-progression:tb;writing-mode:lr-tb;baseline-shift:baseline;text-anchor:start;white-space:normal;clip-rule:nonzero;display:inline;overflow:visible;visibility:visible;opacity:1;isolation:auto;mix-blend-mode:normal;color-interpolation:sRGB;color-interpolation-filters:linearRGB;solid-color:#000000;solid-opacity:1;fill:#f2f2f2;fill-opacity:1;fill-rule:nonzero;stroke:none;stroke-width:0.99999988;stroke-linecap:butt;stroke-linejoin:miter;stroke-miterlimit:4;stroke-dasharray:none;stroke-dashoffset:0;stroke-opacity:1;color-rendering:auto;image-rendering:auto;shape-rendering:auto;text-rendering:auto;enable-background:accumulate"
       d="M 11 2 C 9.9645199 1.9999 9.1442545 2.7028718 8.7714844 3.6386719 C 7.7746429 3.4927719 6.7546026 3.8535999 6.2363281 4.75 C 5.719191 5.6478001 5.9190169 6.7098999 6.5449219 7.5 C 5.9190169 8.2901001 5.719191 9.3521999 6.2363281 10.25 C 6.7548823 11.1475 7.7756671 11.508328 8.7734375 11.361328 C 9.1459158 12.296328 9.9654621 12.9991 11 13 C 11.75405 13.000073 12.392028 12.62456 12.828125 12.060547 C 12.927633 12.494411 13.025965 13.064748 12.994141 13.697266 C 12.938111 14.810766 11.898001 17.5765 10 19 L 11 19 L 13 19 C 13 19 13.661422 17.650273 13.34375 16.613281 C 13.821993 15.566077 13.957903 14.466303 13.994141 13.746094 C 14.048306 12.669542 13.796992 11.783034 13.667969 11.369141 C 14.513726 11.365438 15.321913 11.014059 15.763672 10.25 C 16.280809 9.3521999 16.080983 8.2901001 15.455078 7.5 C 16.080983 6.7098999 16.280809 5.6478001 15.763672 4.75 C 15.245118 3.8524999 14.224334 3.4916719 13.226562 3.6386719 C 12.854084 2.7036718 12.034538 2.0009 11 2 z M 13 19 L 16 19 C 16 19 17 16.9687 16 16 C 16 16 14.999998 18 13 19 z M 16 19 L 19 19 C 19 19 19.999997 17 19 16 C 19 16 18 18 16 19 z M 10 19 C 10 19 10.999999 17 10 16 C 10 16 8.9999992 18 7 19 L 10 19 z M 7 19 C 7 19 7.9999992 17 7 16 C 7 16 5.9999996 18 4 19 L 7 19 z M 4 19 C 4 19 5 17 4 16 C 4 16 3 18 1 19 L 4 19 z M 11 3 C 11.716916 3.0006 12.327327 3.5003249 12.46875 4.203125 L 12.580078 4.7617188 L 13.119141 4.5800781 C 13.798933 4.3506781 14.537577 4.6290999 14.896484 5.25 C 15.254499 5.8715001 15.12645 6.6512999 14.587891 7.125 L 14.160156 7.5 L 14.587891 7.875 C 15.12645 8.3487001 15.254499 9.1284999 14.896484 9.75 C 14.537719 10.3705 13.80044 10.648522 13.121094 10.419922 L 12.582031 10.240234 L 12.470703 10.794922 C 12.32917 11.498322 11.717477 12.0001 11 12 C 10.283084 11.9994 9.6726725 11.499675 9.53125 10.796875 L 9.4199219 10.238281 L 8.8808594 10.419922 C 8.2010669 10.649322 7.4624228 10.3709 7.1035156 9.75 C 6.7455006 9.1284999 6.8735502 8.3487001 7.4121094 7.875 L 7.8398438 7.5 L 7.4121094 7.125 C 6.8735502 6.6512999 6.7455006 5.8715001 7.1035156 5.25 C 7.4622808 4.6294999 8.1995593 4.3514781 8.8789062 4.5800781 L 9.4179688 4.7597656 L 9.5292969 4.203125 C 9.6708303 3.4997249 10.282523 2.9999 11 3 z M 11 4.9277344 A 2.5714145 2.5714145 0 0 0 8.4277344 7.5 A 2.5714145 2.5714145 0 0 0 11 10.072266 A 2.5714145 2.5714145 0 0 0 13.572266 7.5 A 2.5714145 2.5714145 0 0 0 11 4.9277344 z "
       transform="translate(0,1030.3622)"
       id="path4201" />
  </svg:g>
</svg:svg>

<?xml version="1.0" encoding="UTF-8" standalone="no"?>
<svg xmlns="http://www.w3.org/2000/svg" version="1.1" xmlns:cc="http://creativecommons.org/ns#" xmlns:dc="http://purl.org/dc/elements/1.1/" height="22" viewBox="0 0 21.999999 21.999999" width="22" xmlns:rdf="http://www.w3.org/1999/02/22-rdf-syntax-ns#">
<defs>
<style id="current-color-scheme" type="text/css">.ColorScheme-Text {
        color:#f2f2f2;
      }</style>
</defs>
<g transform="translate(0 -1.03e3)">
<path style="color-rendering:auto;text-decoration-color:#000000;color:#000000;shape-rendering:auto;solid-color:#000000;text-decoration-line:none;text-rendering:auto;mix-blend-mode:normal;block-progression:tb;text-indent:0;image-rendering:auto;white-space:normal;text-decoration-style:solid;isolation:auto;text-transform:none" font-family="sans-serif" d="m11 2c-1.04 0-1.86 0.7-2.23 1.64-1-0.15-2.02 0.21-2.53 1.11-0.52 0.9-0.32 1.96 0.3 2.75-0.62 0.79-0.82 1.85-0.3 2.7 0.51 0.9 1.54 1.3 2.53 1.2 0.38 0.9 1.2 1.6 2.23 1.6 0.8 0 1.4-0.4 1.8-0.9 0.1 0.4 0.2 1 0.2 1.6-0.1 1.1-1.1 3.9-3 5.3h1 2s0.7-1.3 0.3-2.4c0.5-1 0.7-2.1 0.7-2.9 0-1-0.2-1.9-0.3-2.3 0.8 0 1.6-0.4 2.1-1.2 0.5-0.85 0.3-1.91-0.3-2.7 0.6-0.79 0.8-1.85 0.3-2.75-0.6-0.9-1.6-1.26-2.6-1.11-0.3-0.94-1.2-1.64-2.2-1.64zm2 17h3s1-2 0-3c0 0-1 2-3 3zm3 0h3s1-2 0-3c0 0-1 2-3 3zm-6 0s1-2 0-3c0 0-1 2-3 3h3zm-3 0s1-2 0-3c0 0-1 2-3 3h3zm-3 0s1-2 0-3c0 0-1 2-3 3h3zm7-16c0.7 0 1.3 0.5 1.5 1.2l0.1 0.56 0.5-0.18c0.7-0.23 1.4 0.05 1.8 0.67s0.2 1.4-0.3 1.87l-0.4 0.38 0.4 0.38c0.5 0.47 0.7 1.25 0.3 1.87-0.4 0.65-1.1 0.85-1.8 0.65l-0.5-0.2-0.1 0.6c-0.2 0.7-0.8 1.2-1.5 1.2s-1.33-0.5-1.47-1.2l-0.11-0.6-0.54 0.2c-0.68 0.2-1.42 0-1.78-0.65-0.35-0.62-0.23-1.4 0.31-1.87l0.43-0.38-0.43-0.38c-0.54-0.47-0.66-1.25-0.31-1.87 0.36-0.62 1.1-0.9 1.78-0.67l0.54 0.18 0.11-0.56c0.14-0.7 0.77-1.2 1.47-1.2zm0 1.93a2.57 2.57 0 0 0 -2.57 2.57 2.57 2.57 0 0 0 2.57 2.6 2.57 2.57 0 0 0 2.6 -2.6 2.57 2.57 0 0 0 -2.6 -2.57z" line-height="normal" transform="translate(0 1.03e3)" fill="#f2f2f2"/>
</g>
</svg>
